build/assets/images/proyectos/logos/fichas/logo-unicef.svg

<svg width="200" height="49" viewBox="0 0 200 49" fill="none" xmlns="http://www.w3.org/2000/svg">
<g clip-path="url(#clip0)">
<path d="M172.033 0.206787C161.667 0.206787 153.13 8.58077 153.13 19.1092C153.13 29.4751 161.504 38.0117 172.033 38.0117C182.398 38.0117 190.935 29.6377 190.935 19.1092C190.935 8.58077 182.398 0.206787 172.033 0.206787ZM186.667 8.58077C185.732 9.19052 184.675 9.80028 183.618 10.41C183.008 9.19052 182.236 7.97101 181.341 6.9141C182.114 6.46695 182.886 5.85719 183.496 5.36939C184.837 6.14175 185.894 7.36126 186.667 8.58077ZM178.74 2.36126C180.285 2.97102 181.626 3.74337 183.008 4.80028C182.398 5.41004 181.626 5.85719 180.854 6.345C179.919 5.28809 178.862 4.35313 177.805 3.45882C178.13 2.97101 178.455 2.64581 178.74 2.36126ZM180.285 6.62955C179.228 7.23931 178.13 7.56451 177.073 8.01166C176.626 6.95475 176.138 5.85719 175.528 4.96289C176.138 4.63768 176.748 4.35313 177.195 3.90597C178.293 4.63768 179.35 5.53199 180.285 6.62955ZM177.968 2.03605C177.642 2.36126 177.358 2.64581 177.195 2.97102C176.138 2.36126 175.203 1.7515 173.984 1.30435C175.407 1.2637 176.748 1.5889 177.968 2.03605ZM176.626 3.41817C176.179 3.74337 175.691 4.02793 175.244 4.19053C174.634 3.25557 174.024 2.52386 173.415 1.5889C174.472 2.03606 175.528 2.64581 176.626 3.41817ZM172.317 1.7515C173.089 2.52386 173.699 3.41817 174.309 4.51573C173.699 4.67833 173.089 4.84093 172.317 4.84093V1.7515ZM172.317 5.53199C173.089 5.53199 173.984 5.36939 174.756 5.08483C175.366 6.01979 175.813 7.0767 176.301 8.13361C175.081 8.45882 173.699 8.58077 172.317 8.74337V5.53199ZM171.585 1.7515V4.80028C170.976 4.80028 170.366 4.63768 169.594 4.47508C170.366 3.58077 170.976 2.64581 171.585 1.7515ZM168.984 4.19053C168.537 4.02793 167.927 3.74337 167.602 3.41817C168.659 2.80841 169.756 2.19866 170.813 1.7515C170.041 2.48321 169.431 3.25557 168.984 4.19053ZM170.041 1.14175C168.984 1.5889 167.886 2.19866 166.829 2.80841C166.504 2.48321 166.22 2.19866 166.057 1.87345C167.317 1.5889 168.659 1.2637 170.041 1.14175ZM183.008 33.4588C180.569 32.0767 180.407 30.0848 180.569 29.4751C180.732 28.7027 181.179 29.0279 181.504 29.0279C183.171 29.0279 184.878 28.5808 186.992 26.2637C189.431 23.8247 190.203 18.3369 186.382 14.8409C182.398 11.0198 178.13 11.6295 175.407 15.1661C174.797 15.9385 173.415 16.3856 172.358 16.3856C170.528 16.3856 171.748 17.7678 171.748 18.0523C171.748 18.3775 171.423 18.4995 171.301 18.4995C170.691 18.3369 170.976 19.2718 170.976 19.4344C170.976 19.597 170.65 19.8816 170.65 19.8816C169.878 19.8816 170.041 20.4913 170.203 20.8165C170.203 20.9791 170.203 21.2637 169.878 21.4263C169.553 21.5889 169.431 22.1987 169.431 22.6458C169.431 23.4182 170.203 24.0279 171.423 24.9222C172.642 25.8572 172.805 26.7515 172.805 27.3612C172.805 27.971 172.968 29.0279 173.13 29.6377C173.455 30.41 173.455 31.9141 171.748 31.9141C169.594 32.0767 165.935 33.5808 165.65 33.7434C164.431 34.1905 162.886 34.3531 161.667 34.0686C161.057 33.6214 160.447 33.1336 159.837 32.5239C159.512 31.7515 160 30.8572 160.447 30.2474C161.22 31.0198 162.114 30.8572 162.724 30.8572C163.333 30.8572 166.098 30.41 166.545 30.2474C166.992 30.0848 167.155 30.0848 167.317 30.2474C168.374 30.6946 169.919 30.6946 170.528 28.7027C171.138 26.5482 169.756 27.158 169.472 27.3206C169.309 27.4832 169.024 27.3206 169.146 27.158C169.472 26.7108 168.984 26.7108 168.821 26.7108C168.211 26.7108 167.439 27.3206 167.276 27.4832C166.951 27.6458 166.829 27.6458 166.667 27.6458C165.894 27.1987 163.618 27.8084 162.846 26.5889C162.846 26.2637 162.236 21.2637 161.911 20.3287C161.911 20.1661 161.748 19.8816 162.073 19.5564C162.683 18.6214 164.228 19.5564 165.122 19.5564C166.179 19.5564 166.341 19.1092 166.667 18.784C166.992 18.4588 167.114 18.6214 167.276 18.4588C167.439 18.2962 167.276 18.1336 167.276 18.0117C167.276 17.8897 167.439 18.0117 167.602 17.8491C167.764 17.6865 167.602 17.4019 167.602 17.2393C167.927 16.7921 168.537 17.0767 168.211 16.1824C168.049 15.5726 168.374 14.9629 168.659 14.6377C169.106 14.0279 171.098 11.2637 167.724 8.37752C164.512 5.61329 161.179 5.93849 159.024 8.21492C156.87 10.4913 157.968 13.8653 158.089 14.7596C158.252 15.6946 157.642 16.4263 156.87 16.7515C156.26 17.0767 154.878 17.971 153.984 18.7434C154.146 11.4263 158.577 5.00353 165.285 2.44256C165.61 2.76776 165.894 3.21492 166.22 3.49947C165.447 4.10922 163.781 5.49134 163.781 5.49134C163.781 5.49134 163.943 5.49134 164.228 5.65394C164.39 5.65394 164.675 5.81654 164.675 5.81654C164.675 5.81654 166.057 4.59703 166.829 4.14988C167.276 4.59703 167.886 4.92223 168.496 5.20679C168.171 5.81654 167.276 7.36126 167.276 7.36126C167.276 7.36126 167.439 7.52386 167.602 7.52386C167.764 7.68646 167.927 7.68646 167.927 7.68646C167.927 7.68646 168.862 6.01979 169.146 5.41004C169.919 5.73524 170.691 5.85719 171.423 5.85719V8.90597C170.976 8.90597 169.878 8.90597 169.431 8.74337H169.106L169.268 9.06857C169.431 9.23118 169.431 9.39378 169.594 9.51573H171.423V15.1661H172.195V13.784C173.415 13.784 174.35 13.6214 175.407 13.4588L176.463 12.5239H175.854C174.634 12.6865 173.577 12.8491 172.642 12.8491H172.195V9.35313C173.577 9.35313 175.081 9.19052 176.463 8.74337C176.789 9.67833 177.52 11.9548 177.52 11.9548L178.293 11.6295C178.293 11.6295 177.52 9.35313 177.236 8.41817C178.455 8.09297 179.512 7.48321 180.61 7.03605C181.545 8.09296 182.276 9.31248 182.886 10.532C182.276 10.8572 181.341 11.1417 181.341 11.1417C182.114 11.3043 182.724 11.4669 182.724 11.4669C182.724 11.4669 183.049 11.3043 183.171 11.3043C183.171 11.4669 183.333 11.7515 183.333 11.7515L184.39 12.1987L184.228 11.8735C184.228 11.8735 183.902 11.1011 183.781 10.9385C184.837 10.4913 185.935 9.88158 186.992 9.10922C188.984 11.9954 189.878 15.532 189.878 19.0279C190.163 24.9222 187.276 30.0848 183.008 33.4588Z" fill="white"/>
<path d="M151.463 5.24744L151.138 5.57265C150.081 6.5076 147.48 9.06858 147.927 11.9954V12.158L148.089 12.7678L148.415 12.4426C149.959 11.0604 151.179 8.62142 151.626 5.89785L151.789 5.12549L151.463 5.24744Z" fill="white"/>
<path d="M146.26 10.1254L146.098 10.4506C145.935 10.8977 145.651 11.9953 145.488 13.2148C145.163 15.0441 145.325 17.8083 146.87 19.7595L147.195 20.3693L147.521 19.1498C147.846 16.9953 147.358 12.605 146.586 10.6132L146.26 10.0034V10.1254Z" fill="white"/>
<path d="M144.431 17.7271V18.0523C144.268 19.8815 144.431 24.597 148.252 27.1986L148.699 27.5238V26.9141C148.699 25.0848 146.545 19.7596 145.041 17.9303L144.594 17.3206L144.431 17.7271Z" fill="white"/>
<path d="M145.041 26.1418V26.4671C145.651 29.2313 148.09 33.4996 152.073 34.841L152.683 35.0036L152.52 34.3939C151.748 32.402 147.927 27.6866 145.488 26.1418L145.041 25.8167V26.1418Z" fill="white"/>
<path d="M153.13 9.35303L152.683 9.51563C149.797 11.3449 148.415 13.4994 148.415 16.2229V16.8327L148.862 16.5075C150.407 15.1254 152.52 11.7921 152.968 9.96279L153.13 9.19043V9.35303Z" fill="white"/>
<path d="M151.301 15.1661L151.138 15.4913C150.366 16.2637 147.927 18.8653 148.09 22.0361C148.09 22.4832 148.252 23.093 148.415 23.5808L148.577 24.0279L148.903 23.5808C150.122 21.9141 151.667 17.6458 151.504 15.6539V15.0442L151.301 15.1661Z" fill="white"/>
<path d="M151.464 20.8164L151.301 21.1416C150.081 22.9709 149.472 24.8002 149.472 26.6294C149.472 27.8489 149.919 29.0684 150.691 30.288L151.016 30.7351L151.179 30.288C151.626 29.2311 152.114 26.0197 152.114 23.418C152.114 22.4831 151.951 21.7514 151.789 21.2636L151.626 20.6538L151.464 20.8164Z" fill="white"/>
<path d="M152.805 26.7515L152.643 27.0767C152.317 28.2962 152.033 29.3531 152.195 30.5726C152.195 33.0116 153.415 35.0035 155.569 36.3856L155.895 36.5482L156.057 36.1011V35.6539C156.057 33.662 154.512 28.4994 153.293 26.9547L152.968 26.5076L152.805 26.7515Z" fill="white"/>
<path d="M148.699 34.6782L148.862 35.0034C150.407 37.6051 153.13 41.101 158.171 40.2067H158.618L158.293 39.8815C157.358 38.4994 151.26 35.0034 149.146 34.6782L148.537 34.5156L148.699 34.6782Z" fill="white"/>
<path d="M156.179 41.3857L155.407 41.5483L156.179 41.8735C159.39 43.2556 163.334 43.5402 165.773 42.8085C166.708 42.4833 167.155 42.0361 167.764 41.4264C171.87 41.8735 175.691 45.2475 177.968 47.9711L178.13 48.1337H178.293C178.618 47.9711 178.903 47.6865 179.065 47.5239L179.228 47.3613L179.065 47.1987C176.789 44.1499 173.13 42.3207 172.968 42.1581C169.594 40.6134 163.781 39.3938 156.179 41.3857Z" fill="white"/>
<path d="M156.342 32.849V33.1742C156.789 36.223 158.008 40.2067 163.212 39.7189H163.537L163.374 39.3937C163.049 38.0116 158.334 34.0685 156.667 32.971L156.22 32.6458L156.342 32.849Z" fill="white"/>
<path d="M192.317 4.92236L192.48 5.69472C192.927 8.45895 194.146 10.898 195.691 12.2394L196.016 12.5646L196.179 11.9549V11.7923C196.626 8.9061 194.024 6.30448 192.968 5.36952L192.642 5.04432L192.317 4.92236Z" fill="white"/>
<path d="M197.642 9.80029L197.317 10.41C196.545 12.4019 196.26 16.8328 196.382 18.9466L196.707 20.1661L196.87 20.0035L197.033 19.6783C198.699 17.6865 198.699 15.0848 198.415 13.1336C198.252 11.7515 197.968 10.8572 197.805 10.3694L197.642 10.0442V9.80029Z" fill="white"/>
<path d="M199.634 17.4426L199.187 18.0524C197.642 20.0443 195.529 25.2069 195.529 27.0361V27.6459L195.976 27.3207C199.797 24.8817 199.959 20.1662 199.797 18.1743V17.8491L199.634 17.4426Z" fill="white"/>
<path d="M199.025 25.8167L198.415 26.1418C195.976 27.6866 192.155 32.402 191.382 34.3939L191.22 35.0036L191.829 34.841C195.813 33.6215 198.374 29.1906 198.862 26.4671V26.1418L199.025 25.8167Z" fill="white"/>
<path d="M190.935 9.0686L191.098 9.84096C191.707 11.8328 193.537 15.1662 195.203 16.5483L195.65 16.8735V16.2637C195.813 13.4995 194.431 11.3857 191.545 9.55641L191.22 9.3938L190.935 9.0686Z" fill="white"/>
<path d="M192.602 15.0034V15.6132C192.439 17.605 194.146 22.0359 195.203 23.54L195.528 23.9872L195.691 23.54C195.854 22.9302 196.016 22.4831 196.016 21.9953C196.179 18.7839 193.74 16.1823 192.968 15.4506L192.805 15.288L192.602 15.0034Z" fill="white"/>
<path d="M192.48 20.4912L192.317 21.101C192.155 21.5481 191.992 22.3205 191.992 23.2554C191.992 25.8571 192.317 29.0684 192.927 30.1254L193.09 30.5725L193.415 30.1254C194.187 29.0684 194.634 27.8489 194.634 26.4668C194.634 24.8002 194.024 22.8083 192.805 20.979L192.642 20.6538L192.48 20.4912Z" fill="white"/>
<path d="M191.098 26.4263L190.773 26.8734C189.553 28.4181 188.008 33.5807 188.008 35.5726V36.0198L188.171 36.4669L188.496 36.3043C190.651 34.9222 191.707 32.9303 191.87 30.4913C191.87 29.4344 191.707 28.2149 191.423 26.9954L191.26 26.6702L191.098 26.4263Z" fill="white"/>
<path d="M195.529 34.353L194.919 34.5156C192.764 34.8408 186.667 38.3368 185.772 39.7189L185.447 40.0441H185.894C190.935 40.979 193.659 37.4425 195.203 34.8408L195.366 34.5156L195.529 34.353Z" fill="white"/>
<path d="M171.26 42.1581C171.098 42.1581 167.439 44.1499 165.163 47.1987L165 47.3613L165.163 47.5239C165.325 47.6865 165.772 47.9711 165.935 48.1337H166.098L166.26 47.9711C168.537 45.2068 172.358 41.7109 176.463 41.4264C177.073 42.0361 177.683 42.4833 178.455 42.8085C180.732 43.5808 184.878 43.2556 188.049 41.8735L188.821 41.5483L188.049 41.3857C180.285 39.3938 174.472 40.6134 171.26 42.1581Z" fill="white"/>
<path d="M187.724 32.5239L187.277 32.8491C185.61 33.906 181.017 37.8898 180.569 39.2719L180.407 39.5971H180.732C185.773 40.0442 186.992 36.1012 187.602 33.0524V32.6865L187.724 32.5239Z" fill="white"/>
<path d="M59.0244 2.03613H65.4472V7.84914H59.0244V2.03613ZM59.6342 14.5565H64.9594V42.9304H59.6342V14.5565Z" fill="white"/>
<path d="M19.2278 14.5564H24.553V42.9304H19.3497V38.784H19.1871C17.0326 42.28 13.3741 43.8247 9.43101 43.8247C3.49605 43.8247 0.12207 39.2312 0.12207 33.6214V14.5564H5.44727V31.345C5.44727 36.2231 6.50419 39.8816 11.7074 39.8816C13.8619 39.8816 16.9107 38.8247 17.9676 35.7759C19.0245 33.1743 19.0245 29.8409 19.0245 29.0686V14.597H19.2278V14.5564Z" fill="white"/>
<path d="M35.244 18.662C37.2359 15.1661 41.057 13.6213 43.9432 13.6213C45.9351 13.6213 54.6343 14.0685 54.6343 23.2148V42.727H49.3091V24.8815C49.3091 20.1661 47.3172 17.727 42.7644 17.727C42.7644 17.727 39.8782 17.5644 37.5611 19.8815C36.7887 20.6539 35.2847 21.8734 35.2847 27.5238V42.9303H29.9595V14.5563H35.2847L35.244 18.662Z" fill="white"/>
<path d="M87.3984 23.54C87.0732 20.0441 85.4065 17.6051 81.5854 17.6051C76.5447 17.6051 74.5529 22.036 74.5529 28.5807C74.5529 35.1254 76.5447 39.5563 81.5854 39.5563C85.0813 39.5563 87.2358 37.2799 87.5203 33.1335H92.8455C92.3984 39.5563 87.6423 43.3368 81.4228 43.3368C72.4391 43.3368 68.7805 36.914 68.7805 28.7026C68.7805 20.4913 72.8862 13.6213 81.9106 13.6213C87.8456 13.6213 92.2764 17.4425 92.6016 23.54H87.3984Z" fill="white"/>
<path d="M100.813 29.6376C100.366 34.5156 102.48 39.7189 107.846 39.7189C111.951 39.7189 114.106 38.0522 114.715 33.9059H120.325C119.39 40.3286 114.512 43.4994 107.805 43.4994C98.8211 43.4994 95.1626 37.0766 95.1626 28.8652C95.1626 20.6539 99.2683 13.7839 108.293 13.7839C116.667 13.9465 120.65 19.2717 120.65 27.036V29.6376H100.813ZM115.163 25.9791C115.325 21.2636 113.171 17.6051 108.008 17.6051C103.577 17.6051 100.976 21.4262 100.976 25.9791H115.163Z" fill="white"/>
<path d="M126.748 42.6051V18.2149H121.87V14.5564H126.748V8.45881C126.911 2.36125 131.626 0.69458 135.61 0.69458C136.83 0.69458 138.212 1.01978 139.431 1.30434V5.73523C138.496 5.73523 137.602 5.57263 136.667 5.57263C133.618 5.57263 131.951 6.34498 132.073 9.39376V14.597H138.618V18.2556H132.073V42.6458L126.748 42.6051Z" fill="white"/>
</g>
<defs>
<clipPath id="clip0">
<rect width="200" height="47.9675" fill="white" transform="translate(0 0.166016)"/>
</clipPath>
</defs>
</svg>

<svg width="200" height="49" fill="none" xmlns="http://www.w3.org/2000/svg"><g clip-path="url(#clip0)" fill="#fff"><path d="M172.033.207c-10.366 0-18.903 8.374-18.903 18.902 0 10.366 8.374 18.903 18.903 18.903 10.365 0 18.902-8.374 18.902-18.903 0-10.528-8.537-18.902-18.902-18.902zm14.634 8.374c-.935.61-1.992 1.22-3.049 1.829-.61-1.22-1.382-2.439-2.277-3.496.773-.447 1.545-1.057 2.155-1.545 1.341.773 2.398 1.992 3.171 3.212zm-7.927-6.22c1.545.61 2.886 1.382 4.268 2.44-.61.609-1.382 1.056-2.154 1.544-.935-1.057-1.992-1.992-3.049-2.886.325-.488.65-.813.935-1.098zm1.545 4.269c-1.057.61-2.155.935-3.212 1.382-.447-1.057-.935-2.155-1.545-3.05.61-.324 1.22-.609 1.667-1.056a14.86 14.86 0 013.09 2.724zm-2.317-4.594c-.326.325-.61.61-.773.935-1.057-.61-1.992-1.22-3.211-1.667 1.423-.04 2.764.285 3.984.732zm-1.342 1.382c-.447.325-.935.61-1.382.773-.61-.935-1.22-1.667-1.829-2.602 1.057.447 2.113 1.057 3.211 1.83zm-4.309-1.667c.772.773 1.382 1.667 1.992 2.765-.61.162-1.22.325-1.992.325V1.75zm0 3.781c.772 0 1.667-.163 2.439-.447.61.935 1.057 1.992 1.545 3.049-1.22.325-2.602.447-3.984.61V5.531zm-.732-3.78V4.8c-.609 0-1.219-.162-1.991-.325.772-.894 1.382-1.83 1.991-2.723zm-2.601 2.439c-.447-.163-1.057-.448-1.382-.773 1.057-.61 2.154-1.22 3.211-1.667-.772.732-1.382 1.505-1.829 2.44zm1.057-3.05c-1.057.448-2.155 1.058-3.212 1.667-.325-.325-.609-.61-.772-.935 1.26-.284 2.602-.61 3.984-.731zm12.967 32.318c-2.439-1.382-2.601-3.374-2.439-3.984.163-.772.61-.447.935-.447 1.667 0 3.374-.447 5.488-2.764 2.439-2.44 3.211-7.927-.61-11.423-3.984-3.821-8.252-3.211-10.975.325-.61.772-1.992 1.22-3.049 1.22-1.83 0-.61 1.382-.61 1.666 0 .326-.325.448-.447.448-.61-.163-.325.772-.325.934 0 .163-.326.448-.326.448-.772 0-.609.61-.447.934 0 .163 0 .448-.325.61-.325.163-.447.773-.447 1.22 0 .772.772 1.382 1.992 2.276 1.219.935 1.382 1.83 1.382 2.44 0 .609.163 1.666.325 2.276.325.772.325 2.276-1.382 2.276-2.154.163-5.813 1.667-6.098 1.83-1.219.447-2.764.61-3.983.325-.61-.448-1.22-.935-1.83-1.545-.325-.773.163-1.667.61-2.277.773.773 1.667.61 2.277.61.609 0 3.374-.447 3.821-.61.447-.162.61-.162.772 0 1.057.448 2.602.448 3.211-1.544.61-2.155-.772-1.545-1.056-1.382-.163.162-.448 0-.326-.163.326-.447-.162-.447-.325-.447-.61 0-1.382.61-1.545.772-.325.163-.447.163-.609.163-.773-.447-3.049.162-3.821-1.057 0-.325-.61-5.325-.935-6.26 0-.163-.163-.447.162-.773.61-.935 2.155 0 3.049 0 1.057 0 1.219-.447 1.545-.772.325-.325.447-.163.609-.325.163-.163 0-.325 0-.447s.163 0 .326-.163c.162-.163 0-.447 0-.61.325-.447.935-.162.609-1.057-.162-.61.163-1.22.448-1.544.447-.61 2.439-3.374-.935-6.26-3.212-2.765-6.545-2.44-8.7-.163-2.154 2.276-1.056 5.65-.935 6.545.163.935-.447 1.666-1.219 1.992-.61.325-1.992 1.219-2.886 1.991.162-7.317 4.593-13.74 11.301-16.3.325.325.609.772.935 1.056-.773.61-2.439 1.992-2.439 1.992s.162 0 .447.163c.162 0 .447.163.447.163s1.382-1.22 2.154-1.667c.447.447 1.057.772 1.667 1.057-.325.61-1.22 2.154-1.22 2.154s.163.163.326.163a.502.502 0 00.325.162s.935-1.666 1.219-2.276a5.82 5.82 0 002.277.447v3.049c-.447 0-1.545 0-1.992-.163h-.325l.162.326c.163.162.163.325.326.447h1.829v5.65h.772v-1.382c1.22 0 2.155-.163 3.212-.325l1.056-.935h-.609c-1.22.163-2.277.325-3.212.325h-.447V9.353c1.382 0 2.886-.162 4.268-.61.326.935 1.057 3.212 1.057 3.212l.773-.325s-.773-2.277-1.057-3.212c1.219-.325 2.276-.935 3.374-1.382.935 1.057 1.666 2.276 2.276 3.496-.61.325-1.545.61-1.545.61.773.162 1.383.325 1.383.325s.325-.163.447-.163c0 .163.162.447.162.447l1.057.448-.162-.325s-.326-.773-.447-.936a16.176 16.176 0 003.211-1.829c1.992 2.886 2.886 6.423 2.886 9.919.285 5.894-2.602 11.057-6.87 14.43zM151.463 5.247l-.325.326c-1.057.935-3.658 3.496-3.211 6.422v.163l.162.61.326-.325c1.544-1.383 2.764-3.822 3.211-6.545l.163-.773-.326.122zm-5.203 4.878l-.162.326c-.163.447-.447 1.544-.61 2.764-.325 1.83-.163 4.593 1.382 6.544l.325.61.326-1.22c.325-2.154-.163-6.544-.935-8.536l-.326-.61v.122zm-1.829 7.602v.325c-.163 1.83 0 6.545 3.821 9.147l.447.325v-.61c0-1.83-2.154-7.154-3.658-8.984l-.447-.61-.163.407zm.61 8.415v.325c.61 2.764 3.049 7.033 7.032 8.374l.61.163-.163-.61c-.772-1.992-4.593-6.707-7.032-8.252l-.447-.325v.325zm8.089-16.789l-.447.163c-2.886 1.829-4.268 3.983-4.268 6.707v.61l.447-.325c1.545-1.383 3.658-4.716 4.106-6.545l.162-.773v.163zm-1.829 5.813l-.163.325c-.772.773-3.211 3.374-3.048 6.545 0 .447.162 1.057.325 1.545l.162.447.326-.447c1.219-1.667 2.764-5.935 2.601-7.927v-.61l-.203.122zm.163 5.65l-.163.326c-1.22 1.829-1.829 3.658-1.829 5.487 0 1.22.447 2.44 1.219 3.659l.325.447.163-.447c.447-1.057.935-4.268.935-6.87 0-.935-.163-1.667-.325-2.154l-.163-.61-.162.162zm1.341 5.936l-.162.325c-.326 1.22-.61 2.276-.448 3.496 0 2.439 1.22 4.43 3.374 5.813l.326.162.162-.447v-.447c0-1.992-1.545-7.155-2.764-8.7l-.325-.446-.163.244zm-4.106 7.926l.163.325c1.545 2.602 4.268 6.098 9.309 5.204h.447l-.325-.325c-.935-1.383-7.033-4.879-9.147-5.204l-.609-.162.162.162zm7.48 6.708l-.772.162.772.325c3.211 1.383 7.155 1.667 9.594.936.935-.326 1.382-.773 1.991-1.383 4.106.447 7.927 3.822 10.204 6.545l.162.163h.163c.325-.163.61-.447.772-.61l.163-.163-.163-.162c-2.276-3.05-5.935-4.878-6.097-5.04-3.374-1.546-9.187-2.765-16.789-.773z"/><path d="M156.342 32.849v.325c.447 3.049 1.666 7.033 6.87 6.545h.325l-.163-.325c-.325-1.382-5.04-5.325-6.707-6.423l-.447-.325.122.203zm35.975-27.927l.163.773c.447 2.764 1.666 5.203 3.211 6.544l.325.326.163-.61v-.163c.447-2.886-2.155-5.488-3.211-6.422l-.326-.326-.325-.122zm5.325 4.878l-.325.61c-.772 1.992-1.057 6.423-.935 8.537l.325 1.22.163-.164.163-.325c1.666-1.992 1.666-4.593 1.382-6.544a13.158 13.158 0 00-.61-2.765l-.163-.325V9.8zm1.992 7.643l-.447.61c-1.545 1.991-3.658 7.154-3.658 8.983v.61l.447-.325c3.821-2.44 3.983-7.155 3.821-9.147v-.325l-.163-.406zm-.609 8.374l-.61.325c-2.439 1.545-6.26 6.26-7.033 8.252l-.162.61.609-.163c3.984-1.22 6.545-5.65 7.033-8.374v-.325l.163-.325zm-8.09-16.748l.163.772c.609 1.992 2.439 5.325 4.105 6.707l.447.326v-.61c.163-2.764-1.219-4.878-4.105-6.708l-.325-.162-.285-.325zm1.667 5.934v.61c-.163 1.992 1.544 6.423 2.601 7.927l.325.447.163-.447c.163-.61.325-1.057.325-1.545.163-3.211-2.276-5.813-3.048-6.544l-.163-.163-.203-.285zm-.122 5.488l-.163.61c-.162.447-.325 1.22-.325 2.154 0 2.602.325 5.813.935 6.87l.163.448.325-.448c.772-1.057 1.219-2.276 1.219-3.658 0-1.667-.61-3.659-1.829-5.488l-.163-.325-.162-.163zm-1.382 5.935l-.325.447c-1.22 1.545-2.765 6.708-2.765 8.7v.447l.163.447.325-.163c2.155-1.382 3.211-3.374 3.374-5.813 0-1.057-.163-2.276-.447-3.496l-.163-.325-.162-.244zm4.431 7.927l-.61.163c-2.155.325-8.252 3.82-9.147 5.203l-.325.325h.447c5.041.935 7.765-2.601 9.309-5.203l.163-.325.163-.163zm-24.269 7.805c-.162 0-3.821 1.992-6.097 5.04l-.163.163.163.163c.162.163.609.447.772.61h.163l.162-.163c2.277-2.764 6.098-6.26 10.203-6.545.61.61 1.22 1.057 1.992 1.383 2.277.772 6.423.447 9.594-.935l.772-.326-.772-.162c-7.764-1.992-13.577-.773-16.789.772zm16.464-9.634l-.447.325c-1.667 1.057-6.26 5.04-6.708 6.423l-.162.325h.325c5.041.447 6.26-3.496 6.87-6.545v-.365l.122-.163zM59.024 2.036h6.423V7.85h-6.423V2.036zm.61 12.52h5.325V42.93h-5.325V14.557zm-40.406 0h5.325V42.93H19.35v-4.146h-.163c-2.154 3.496-5.813 5.04-9.756 5.04-5.935 0-9.309-4.593-9.309-10.203V14.556h5.325v16.789c0 4.878 1.057 8.537 6.26 8.537 2.155 0 5.204-1.057 6.26-4.106 1.058-2.602 1.058-5.935 1.058-6.707V14.597h.203v-.04zm16.016 4.106c1.992-3.496 5.813-5.04 8.7-5.04 1.991 0 10.69.447 10.69 9.593v19.512H49.31V24.882c0-4.716-1.992-7.155-6.545-7.155 0 0-2.886-.163-5.203 2.154-.772.773-2.276 1.992-2.276 7.643V42.93H29.96V14.556h5.325l-.041 4.106zm52.154 4.878c-.325-3.496-1.992-5.935-5.813-5.935-5.04 0-7.032 4.431-7.032 10.976 0 6.544 1.992 10.975 7.032 10.975 3.496 0 5.65-2.276 5.935-6.422h5.326c-.448 6.422-5.204 10.203-11.423 10.203-8.984 0-12.642-6.423-12.642-14.634 0-8.212 4.105-15.082 13.13-15.082 5.935 0 10.365 3.821 10.69 9.919h-5.203zm13.415 6.098c-.447 4.878 1.667 10.08 7.033 10.08 4.105 0 6.26-1.666 6.869-5.812h5.61c-.935 6.423-5.813 9.593-12.52 9.593-8.984 0-12.642-6.422-12.642-14.634 0-8.211 4.105-15.081 13.13-15.081 8.374.162 12.357 5.488 12.357 13.252v2.602h-19.837zm14.35-3.659c.162-4.715-1.992-8.374-7.155-8.374-4.431 0-7.032 3.821-7.032 8.374h14.187zm11.585 16.626v-24.39h-4.878v-3.659h4.878V8.46c.163-6.098 4.878-7.764 8.862-7.764 1.22 0 2.602.325 3.821.61v4.43c-.935 0-1.829-.162-2.764-.162-3.049 0-4.716.772-4.594 3.82v5.204h6.545v3.659h-6.545v24.39l-5.325-.04z"/></g><defs><clipPath id="clip0"><path fill="#fff" transform="translate(0 .166)" d="M0 0h200v47.968H0z"/></clipPath></defs></svg>
